X: 79
P: Longways for as many as will
M: C|
L: 1/8
K: C
V: 1
EF |\
|: cB |\
(AG)(AB) (cd)(ec) | (d/e/f) (fe) d3D | (DE)G2 c>d (e/f/g) | d3e D2(EF) |\
V: 2 clef=bass middle=d
c2 |\
c'2a2 b2c'2 | a2f2 e2c2 | f2ed c2C2 | G4 z2c2 |\
c'2c2 b2c'2 | a2f2 e2c2 | d2ef g2G2 | c'geg c2 :|
|: e2 |\
f2d2 e2c2 | d2c2 g2G2 | c4 e2c2 | g2 G4 c2 |\
c'2a2 b2c'2 | a2f2 e2c2 | d2ef g2G2 | cGEG C2 :|

